X:166
T:DRUMDELGIE
R:Jig
S:101 Scottish Songs
M:6/8
L:1/8
Q:116
K:A
F | "A" E2 E ECE |"F#" A2 B"Bm" d2 c |"E" B2 E EDC|"D"  (D3 "E"D)CD|!
"A"E2 E ECE|"F#" A2 B "Bm" d2 c| "E" B2 E EFG|"A" A3 AAB|!
 "A" c2 c ABc|"D"d2 c"E" B2 A2|"A" A2 A "F#m" E2 C| "Bm"(D3"E" D)CD|!
"A" E2 E ECE|"F#m" A2 B "Bm" d2 c|"E" B2 E EFG| "A" A3 A :||
